( pcb2gcode 1.1.4 )

G94     ( Inches per minute feed rate. )
G20     ( Units == INCHES.             )
G90     ( Absolute coordinates.        )
S20000  ( RPM spindle speed.           )
M3      ( Spindle on clockwise.        )

G64 P0.00500 ( set maximum deviation from commanded toolpath )

G04 P0 ( dwell for no time -- G64 should not smooth over this point )
G00 Z0.98425 ( retract )

G00 X-0.01100 Y2.35600 ( rapid move to begin. )
G01 Z0.00000 F0.11811 ( plunge. )
G04 P0 ( dwell for no time -- G64 should not smooth over this point )
X-0.01100 Y2.35600
X-0.01100 Y-0.00700
X-0.01000 Y-0.00700
X-0.01000 Y-0.00900
X-0.00900 Y-0.00900
X-0.00900 Y-0.01000
X3.55100 Y-0.01000
X3.55100 Y-0.00900
X3.55200 Y-0.00900
X3.55200 Y-0.00700
X3.55300 Y-0.00700
X3.55300 Y2.37300
X3.55200 Y2.37300
X3.55200 Y2.37500
X3.55100 Y2.37500
X3.55100 Y2.37600
X-0.00900 Y2.37600
X-0.00900 Y2.37500
X-0.01000 Y2.37500
X-0.01000 Y2.37300
X-0.01100 Y2.37300
X-0.01100 Y2.35600
G01 Z-0.00394 F0.11811 ( plunge. )
G04 P0 ( dwell for no time -- G64 should not smooth over this point )
X-0.01100 Y2.35600
X-0.01100 Y-0.00700
X-0.01000 Y-0.00700
X-0.01000 Y-0.00900
X-0.00900 Y-0.00900
X-0.00900 Y-0.01000
X3.55100 Y-0.01000
X3.55100 Y-0.00900
X3.55200 Y-0.00900
X3.55200 Y-0.00700
X3.55300 Y-0.00700
X3.55300 Y2.37300
X3.55200 Y2.37300
X3.55200 Y2.37500
X3.55100 Y2.37500
X3.55100 Y2.37600
X-0.00900 Y2.37600
X-0.00900 Y2.37500
X-0.01000 Y2.37500
X-0.01000 Y2.37300
X-0.01100 Y2.37300
X-0.01100 Y2.35600
G01 Z-0.00787 F0.11811 ( plunge. )
G04 P0 ( dwell for no time -- G64 should not smooth over this point )
X-0.01100 Y2.35600
X-0.01100 Y-0.00700
X-0.01000 Y-0.00700
X-0.01000 Y-0.00900
X-0.00900 Y-0.00900
X-0.00900 Y-0.01000
X3.55100 Y-0.01000
X3.55100 Y-0.00900
X3.55200 Y-0.00900
X3.55200 Y-0.00700
X3.55300 Y-0.00700
X3.55300 Y2.37300
X3.55200 Y2.37300
X3.55200 Y2.37500
X3.55100 Y2.37500
X3.55100 Y2.37600
X-0.00900 Y2.37600
X-0.00900 Y2.37500
X-0.01000 Y2.37500
X-0.01000 Y2.37300
X-0.01100 Y2.37300
X-0.01100 Y2.35600
G01 Z-0.01181 F0.11811 ( plunge. )
G04 P0 ( dwell for no time -- G64 should not smooth over this point )
X-0.01100 Y2.35600
X-0.01100 Y-0.00700
X-0.01000 Y-0.00700
X-0.01000 Y-0.00900
X-0.00900 Y-0.00900
X-0.00900 Y-0.01000
X3.55100 Y-0.01000
X3.55100 Y-0.00900
X3.55200 Y-0.00900
X3.55200 Y-0.00700
X3.55300 Y-0.00700
X3.55300 Y2.37300
X3.55200 Y2.37300
X3.55200 Y2.37500
X3.55100 Y2.37500
X3.55100 Y2.37600
X-0.00900 Y2.37600
X-0.00900 Y2.37500
X-0.01000 Y2.37500
X-0.01000 Y2.37300
X-0.01100 Y2.37300
X-0.01100 Y2.35600
G01 Z-0.01575 F0.11811 ( plunge. )
G04 P0 ( dwell for no time -- G64 should not smooth over this point )
X-0.01100 Y2.35600
X-0.01100 Y-0.00700
X-0.01000 Y-0.00700
X-0.01000 Y-0.00900
X-0.00900 Y-0.00900
X-0.00900 Y-0.01000
X3.55100 Y-0.01000
X3.55100 Y-0.00900
X3.55200 Y-0.00900
X3.55200 Y-0.00700
X3.55300 Y-0.00700
X3.55300 Y2.37300
X3.55200 Y2.37300
X3.55200 Y2.37500
X3.55100 Y2.37500
X3.55100 Y2.37600
X-0.00900 Y2.37600
X-0.00900 Y2.37500
X-0.01000 Y2.37500
X-0.01000 Y2.37300
X-0.01100 Y2.37300
X-0.01100 Y2.35600
G01 Z-0.01969 F0.11811 ( plunge. )
G04 P0 ( dwell for no time -- G64 should not smooth over this point )
X-0.01100 Y2.35600
X-0.01100 Y-0.00700
X-0.01000 Y-0.00700
X-0.01000 Y-0.00900
X-0.00900 Y-0.00900
X-0.00900 Y-0.01000
X3.55100 Y-0.01000
X3.55100 Y-0.00900
X3.55200 Y-0.00900
X3.55200 Y-0.00700
X3.55300 Y-0.00700
X3.55300 Y2.37300
X3.55200 Y2.37300
X3.55200 Y2.37500
X3.55100 Y2.37500
X3.55100 Y2.37600
X-0.00900 Y2.37600
X-0.00900 Y2.37500
X-0.01000 Y2.37500
X-0.01000 Y2.37300
X-0.01100 Y2.37300
X-0.01100 Y2.35600
G01 Z-0.02362 F0.11811 ( plunge. )
G04 P0 ( dwell for no time -- G64 should not smooth over this point )
X-0.01100 Y2.35600
X-0.01100 Y-0.00700
X-0.01000 Y-0.00700
X-0.01000 Y-0.00900
X-0.00900 Y-0.00900
X-0.00900 Y-0.01000
X3.55100 Y-0.01000
X3.55100 Y-0.00900
X3.55200 Y-0.00900
X3.55200 Y-0.00700
X3.55300 Y-0.00700
X3.55300 Y2.37300
X3.55200 Y2.37300
X3.55200 Y2.37500
X3.55100 Y2.37500
X3.55100 Y2.37600
X-0.00900 Y2.37600
X-0.00900 Y2.37500
X-0.01000 Y2.37500
X-0.01000 Y2.37300
X-0.01100 Y2.37300
X-0.01100 Y2.35600
G01 Z-0.02756 F0.11811 ( plunge. )
G04 P0 ( dwell for no time -- G64 should not smooth over this point )
X-0.01100 Y2.35600
X-0.01100 Y-0.00700
X-0.01000 Y-0.00700
X-0.01000 Y-0.00900
X-0.00900 Y-0.00900
X-0.00900 Y-0.01000
X3.55100 Y-0.01000
X3.55100 Y-0.00900
X3.55200 Y-0.00900
X3.55200 Y-0.00700
X3.55300 Y-0.00700
X3.55300 Y2.37300
X3.55200 Y2.37300
X3.55200 Y2.37500
X3.55100 Y2.37500
X3.55100 Y2.37600
X-0.00900 Y2.37600
X-0.00900 Y2.37500
X-0.01000 Y2.37500
X-0.01000 Y2.37300
X-0.01100 Y2.37300
X-0.01100 Y2.35600
G01 Z-0.03150 F0.11811 ( plunge. )
G04 P0 ( dwell for no time -- G64 should not smooth over this point )
X-0.01100 Y2.35600
X-0.01100 Y-0.00700
X-0.01000 Y-0.00700
X-0.01000 Y-0.00900
X-0.00900 Y-0.00900
X-0.00900 Y-0.01000
X3.55100 Y-0.01000
X3.55100 Y-0.00900
X3.55200 Y-0.00900
X3.55200 Y-0.00700
X3.55300 Y-0.00700
X3.55300 Y2.37300
X3.55200 Y2.37300
X3.55200 Y2.37500
X3.55100 Y2.37500
X3.55100 Y2.37600
X-0.00900 Y2.37600
X-0.00900 Y2.37500
X-0.01000 Y2.37500
X-0.01000 Y2.37300
X-0.01100 Y2.37300
X-0.01100 Y2.35600
G01 Z-0.03543 F0.11811 ( plunge. )
G04 P0 ( dwell for no time -- G64 should not smooth over this point )
X-0.01100 Y2.35600
X-0.01100 Y-0.00700
X-0.01000 Y-0.00700
X-0.01000 Y-0.00900
X-0.00900 Y-0.00900
X-0.00900 Y-0.01000
X3.55100 Y-0.01000
X3.55100 Y-0.00900
X3.55200 Y-0.00900
X3.55200 Y-0.00700
X3.55300 Y-0.00700
X3.55300 Y2.37300
X3.55200 Y2.37300
X3.55200 Y2.37500
X3.55100 Y2.37500
X3.55100 Y2.37600
X-0.00900 Y2.37600
X-0.00900 Y2.37500
X-0.01000 Y2.37500
X-0.01000 Y2.37300
X-0.01100 Y2.37300
X-0.01100 Y2.35600
G01 Z-0.03937 F0.11811 ( plunge. )
G04 P0 ( dwell for no time -- G64 should not smooth over this point )
X-0.01100 Y2.35600
X-0.01100 Y-0.00700
X-0.01000 Y-0.00700
X-0.01000 Y-0.00900
X-0.00900 Y-0.00900
X-0.00900 Y-0.01000
X3.55100 Y-0.01000
X3.55100 Y-0.00900
X3.55200 Y-0.00900
X3.55200 Y-0.00700
X3.55300 Y-0.00700
X3.55300 Y2.37300
X3.55200 Y2.37300
X3.55200 Y2.37500
X3.55100 Y2.37500
X3.55100 Y2.37600
X-0.00900 Y2.37600
X-0.00900 Y2.37500
X-0.01000 Y2.37500
X-0.01000 Y2.37300
X-0.01100 Y2.37300
X-0.01100 Y2.35600
G01 Z-0.04331 F0.11811 ( plunge. )
G04 P0 ( dwell for no time -- G64 should not smooth over this point )
X-0.01100 Y2.35600
X-0.01100 Y-0.00700
X-0.01000 Y-0.00700
X-0.01000 Y-0.00900
X-0.00900 Y-0.00900
X-0.00900 Y-0.01000
X3.55100 Y-0.01000
X3.55100 Y-0.00900
X3.55200 Y-0.00900
X3.55200 Y-0.00700
X3.55300 Y-0.00700
X3.55300 Y2.37300
X3.55200 Y2.37300
X3.55200 Y2.37500
X3.55100 Y2.37500
X3.55100 Y2.37600
X-0.00900 Y2.37600
X-0.00900 Y2.37500
X-0.01000 Y2.37500
X-0.01000 Y2.37300
X-0.01100 Y2.37300
X-0.01100 Y2.35600
G01 Z-0.04724 F0.11811 ( plunge. )
G04 P0 ( dwell for no time -- G64 should not smooth over this point )
X-0.01100 Y2.35600
X-0.01100 Y-0.00700
X-0.01000 Y-0.00700
X-0.01000 Y-0.00900
X-0.00900 Y-0.00900
X-0.00900 Y-0.01000
X3.55100 Y-0.01000
X3.55100 Y-0.00900
X3.55200 Y-0.00900
X3.55200 Y-0.00700
X3.55300 Y-0.00700
X3.55300 Y2.37300
X3.55200 Y2.37300
X3.55200 Y2.37500
X3.55100 Y2.37500
X3.55100 Y2.37600
X-0.00900 Y2.37600
X-0.00900 Y2.37500
X-0.01000 Y2.37500
X-0.01000 Y2.37300
X-0.01100 Y2.37300
X-0.01100 Y2.35600
G01 Z-0.05118 F0.11811 ( plunge. )
G04 P0 ( dwell for no time -- G64 should not smooth over this point )
X-0.01100 Y2.35600
X-0.01100 Y-0.00700
X-0.01000 Y-0.00700
X-0.01000 Y-0.00900
X-0.00900 Y-0.00900
X-0.00900 Y-0.01000
X3.55100 Y-0.01000
X3.55100 Y-0.00900
X3.55200 Y-0.00900
X3.55200 Y-0.00700
X3.55300 Y-0.00700
X3.55300 Y2.37300
X3.55200 Y2.37300
X3.55200 Y2.37500
X3.55100 Y2.37500
X3.55100 Y2.37600
X-0.00900 Y2.37600
X-0.00900 Y2.37500
X-0.01000 Y2.37500
X-0.01000 Y2.37300
X-0.01100 Y2.37300
X-0.01100 Y2.35600
G01 Z-0.05512 F0.11811 ( plunge. )
G04 P0 ( dwell for no time -- G64 should not smooth over this point )
X-0.01100 Y2.35600
X-0.01100 Y-0.00700
X-0.01000 Y-0.00700
X-0.01000 Y-0.00900
X-0.00900 Y-0.00900
X-0.00900 Y-0.01000
X3.55100 Y-0.01000
X3.55100 Y-0.00900
X3.55200 Y-0.00900
X3.55200 Y-0.00700
X3.55300 Y-0.00700
X3.55300 Y2.37300
X3.55200 Y2.37300
X3.55200 Y2.37500
X3.55100 Y2.37500
X3.55100 Y2.37600
X-0.00900 Y2.37600
X-0.00900 Y2.37500
X-0.01000 Y2.37500
X-0.01000 Y2.37300
X-0.01100 Y2.37300
X-0.01100 Y2.35600
G01 Z-0.05906 F0.11811 ( plunge. )
G04 P0 ( dwell for no time -- G64 should not smooth over this point )
X-0.01100 Y2.35600
X-0.01100 Y-0.00700
X-0.01000 Y-0.00700
X-0.01000 Y-0.00900
X-0.00900 Y-0.00900
X-0.00900 Y-0.01000
X3.55100 Y-0.01000
X3.55100 Y-0.00900
X3.55200 Y-0.00900
X3.55200 Y-0.00700
X3.55300 Y-0.00700
X3.55300 Y2.37300
X3.55200 Y2.37300
X3.55200 Y2.37500
X3.55100 Y2.37500
X3.55100 Y2.37600
X-0.00900 Y2.37600
X-0.00900 Y2.37500
X-0.01000 Y2.37500
X-0.01000 Y2.37300
X-0.01100 Y2.37300
X-0.01100 Y2.35600
G01 Z-0.06299 F0.11811 ( plunge. )
G04 P0 ( dwell for no time -- G64 should not smooth over this point )
X-0.01100 Y2.35600
X-0.01100 Y-0.00700
X-0.01000 Y-0.00700
X-0.01000 Y-0.00900
X-0.00900 Y-0.00900
X-0.00900 Y-0.01000
X3.55100 Y-0.01000
X3.55100 Y-0.00900
X3.55200 Y-0.00900
X3.55200 Y-0.00700
X3.55300 Y-0.00700
X3.55300 Y2.37300
X3.55200 Y2.37300
X3.55200 Y2.37500
X3.55100 Y2.37500
X3.55100 Y2.37600
X-0.00900 Y2.37600
X-0.00900 Y2.37500
X-0.01000 Y2.37500
X-0.01000 Y2.37300
X-0.01100 Y2.37300
X-0.01100 Y2.35600
G01 Z-0.06693 F0.11811 ( plunge. )
G04 P0 ( dwell for no time -- G64 should not smooth over this point )
X-0.01100 Y2.35600
X-0.01100 Y-0.00700
X-0.01000 Y-0.00700
X-0.01000 Y-0.00900
X-0.00900 Y-0.00900
X-0.00900 Y-0.01000
X3.55100 Y-0.01000
X3.55100 Y-0.00900
X3.55200 Y-0.00900
X3.55200 Y-0.00700
X3.55300 Y-0.00700
X3.55300 Y2.37300
X3.55200 Y2.37300
X3.55200 Y2.37500
X3.55100 Y2.37500
X3.55100 Y2.37600
X-0.00900 Y2.37600
X-0.00900 Y2.37500
X-0.01000 Y2.37500
X-0.01000 Y2.37300
X-0.01100 Y2.37300
X-0.01100 Y2.35600
G01 Z-0.07087 F0.11811 ( plunge. )
G04 P0 ( dwell for no time -- G64 should not smooth over this point )
X-0.01100 Y2.35600
X-0.01100 Y-0.00700
X-0.01000 Y-0.00700
X-0.01000 Y-0.00900
X-0.00900 Y-0.00900
X-0.00900 Y-0.01000
X3.55100 Y-0.01000
X3.55100 Y-0.00900
X3.55200 Y-0.00900
X3.55200 Y-0.00700
X3.55300 Y-0.00700
X3.55300 Y2.37300
X3.55200 Y2.37300
X3.55200 Y2.37500
X3.55100 Y2.37500
X3.55100 Y2.37600
X-0.00900 Y2.37600
X-0.00900 Y2.37500
X-0.01000 Y2.37500
X-0.01000 Y2.37300
X-0.01100 Y2.37300
X-0.01100 Y2.35600
G01 Z-0.07480 F0.11811 ( plunge. )
G04 P0 ( dwell for no time -- G64 should not smooth over this point )
X-0.01100 Y2.35600
X-0.01100 Y-0.00700
X-0.01000 Y-0.00700
X-0.01000 Y-0.00900
X-0.00900 Y-0.00900
X-0.00900 Y-0.01000
X3.55100 Y-0.01000
X3.55100 Y-0.00900
X3.55200 Y-0.00900
X3.55200 Y-0.00700
X3.55300 Y-0.00700
X3.55300 Y2.37300
X3.55200 Y2.37300
X3.55200 Y2.37500
X3.55100 Y2.37500
X3.55100 Y2.37600
X-0.00900 Y2.37600
X-0.00900 Y2.37500
X-0.01000 Y2.37500
X-0.01000 Y2.37300
X-0.01100 Y2.37300
X-0.01100 Y2.35600
G01 Z-0.07874 F0.11811 ( plunge. )
G04 P0 ( dwell for no time -- G64 should not smooth over this point )
X-0.01100 Y2.35600
X-0.01100 Y-0.00700
X-0.01000 Y-0.00700
X-0.01000 Y-0.00900
X-0.00900 Y-0.00900
X-0.00900 Y-0.01000
X3.55100 Y-0.01000
X3.55100 Y-0.00900
X3.55200 Y-0.00900
X3.55200 Y-0.00700
X3.55300 Y-0.00700
X3.55300 Y2.37300
X3.55200 Y2.37300
X3.55200 Y2.37500
X3.55100 Y2.37500
X3.55100 Y2.37600
X-0.00900 Y2.37600
X-0.00900 Y2.37500
X-0.01000 Y2.37500
X-0.01000 Y2.37300
X-0.01100 Y2.37300
X-0.01100 Y2.35600

G04 P0 ( dwell for no time -- G64 should not smooth over this point )
G00 Z0.39370 ( retract )

M9 ( Coolant off. )
M2 ( Program end. )

