( pcb2gcode 1.1.4 )

( This file uses a mill head of 0.0393701 to drill the 9bit sizes. )

G94     ( Inches per minute feed rate. )
G20     ( Units == INCHES.             )
G90     ( Absolute coordinates.        )
S20000  ( RPM spindle speed.           )

F0.11811
#50=-0.07874 ; zwork
#51=0.98425 ; zsafe
#52=0.00394 ; stepsize
G0 X3.12502 Y2.24350
G1 Z[#50+20*#52]
G2 I-0.02362 J0
G1 Z[#50+19*#52]
G2 I-0.02362 J0
G1 Z[#50+18*#52]
G2 I-0.02362 J0
G1 Z[#50+17*#52]
G2 I-0.02362 J0
G1 Z[#50+16*#52]
G2 I-0.02362 J0
G1 Z[#50+15*#52]
G2 I-0.02362 J0
G1 Z[#50+14*#52]
G2 I-0.02362 J0
G1 Z[#50+13*#52]
G2 I-0.02362 J0
G1 Z[#50+12*#52]
G2 I-0.02362 J0
G1 Z[#50+11*#52]
G2 I-0.02362 J0
G1 Z[#50+10*#52]
G2 I-0.02362 J0
G1 Z[#50+9*#52]
G2 I-0.02362 J0
G1 Z[#50+8*#52]
G2 I-0.02362 J0
G1 Z[#50+7*#52]
G2 I-0.02362 J0
G1 Z[#50+6*#52]
G2 I-0.02362 J0
G1 Z[#50+5*#52]
G2 I-0.02362 J0
G1 Z[#50+4*#52]
G2 I-0.02362 J0
G1 Z[#50+3*#52]
G2 I-0.02362 J0
G1 Z[#50+2*#52]
G2 I-0.02362 J0
G1 Z[#50+1*#52]
G2 I-0.02362 J0
G1 Z[#50+0*#52]
G2 I-0.02362 J0
G0 Z0.98425

G0 X3.12502 Y0.14350
G1 Z[#50+20*#52]
G2 I-0.02362 J0
G1 Z[#50+19*#52]
G2 I-0.02362 J0
G1 Z[#50+18*#52]
G2 I-0.02362 J0
G1 Z[#50+17*#52]
G2 I-0.02362 J0
G1 Z[#50+16*#52]
G2 I-0.02362 J0
G1 Z[#50+15*#52]
G2 I-0.02362 J0
G1 Z[#50+14*#52]
G2 I-0.02362 J0
G1 Z[#50+13*#52]
G2 I-0.02362 J0
G1 Z[#50+12*#52]
G2 I-0.02362 J0
G1 Z[#50+11*#52]
G2 I-0.02362 J0
G1 Z[#50+10*#52]
G2 I-0.02362 J0
G1 Z[#50+9*#52]
G2 I-0.02362 J0
G1 Z[#50+8*#52]
G2 I-0.02362 J0
G1 Z[#50+7*#52]
G2 I-0.02362 J0
G1 Z[#50+6*#52]
G2 I-0.02362 J0
G1 Z[#50+5*#52]
G2 I-0.02362 J0
G1 Z[#50+4*#52]
G2 I-0.02362 J0
G1 Z[#50+3*#52]
G2 I-0.02362 J0
G1 Z[#50+2*#52]
G2 I-0.02362 J0
G1 Z[#50+1*#52]
G2 I-0.02362 J0
G1 Z[#50+0*#52]
G2 I-0.02362 J0
G0 Z0.98425

G0 X0.72502 Y2.24350
G1 Z[#50+20*#52]
G2 I-0.02362 J0
G1 Z[#50+19*#52]
G2 I-0.02362 J0
G1 Z[#50+18*#52]
G2 I-0.02362 J0
G1 Z[#50+17*#52]
G2 I-0.02362 J0
G1 Z[#50+16*#52]
G2 I-0.02362 J0
G1 Z[#50+15*#52]
G2 I-0.02362 J0
G1 Z[#50+14*#52]
G2 I-0.02362 J0
G1 Z[#50+13*#52]
G2 I-0.02362 J0
G1 Z[#50+12*#52]
G2 I-0.02362 J0
G1 Z[#50+11*#52]
G2 I-0.02362 J0
G1 Z[#50+10*#52]
G2 I-0.02362 J0
G1 Z[#50+9*#52]
G2 I-0.02362 J0
G1 Z[#50+8*#52]
G2 I-0.02362 J0
G1 Z[#50+7*#52]
G2 I-0.02362 J0
G1 Z[#50+6*#52]
G2 I-0.02362 J0
G1 Z[#50+5*#52]
G2 I-0.02362 J0
G1 Z[#50+4*#52]
G2 I-0.02362 J0
G1 Z[#50+3*#52]
G2 I-0.02362 J0
G1 Z[#50+2*#52]
G2 I-0.02362 J0
G1 Z[#50+1*#52]
G2 I-0.02362 J0
G1 Z[#50+0*#52]
G2 I-0.02362 J0
G0 Z0.98425

G0 X0.72502 Y0.14350
G1 Z[#50+20*#52]
G2 I-0.02362 J0
G1 Z[#50+19*#52]
G2 I-0.02362 J0
G1 Z[#50+18*#52]
G2 I-0.02362 J0
G1 Z[#50+17*#52]
G2 I-0.02362 J0
G1 Z[#50+16*#52]
G2 I-0.02362 J0
G1 Z[#50+15*#52]
G2 I-0.02362 J0
G1 Z[#50+14*#52]
G2 I-0.02362 J0
G1 Z[#50+13*#52]
G2 I-0.02362 J0
G1 Z[#50+12*#52]
G2 I-0.02362 J0
G1 Z[#50+11*#52]
G2 I-0.02362 J0
G1 Z[#50+10*#52]
G2 I-0.02362 J0
G1 Z[#50+9*#52]
G2 I-0.02362 J0
G1 Z[#50+8*#52]
G2 I-0.02362 J0
G1 Z[#50+7*#52]
G2 I-0.02362 J0
G1 Z[#50+6*#52]
G2 I-0.02362 J0
G1 Z[#50+5*#52]
G2 I-0.02362 J0
G1 Z[#50+4*#52]
G2 I-0.02362 J0
G1 Z[#50+3*#52]
G2 I-0.02362 J0
G1 Z[#50+2*#52]
G2 I-0.02362 J0
G1 Z[#50+1*#52]
G2 I-0.02362 J0
G1 Z[#50+0*#52]
G2 I-0.02362 J0
G0 Z0.98425

G0 X1.82502 Y0.24350
G1 Z[#50+20*#52]
G2 I-0.02362 J0
G1 Z[#50+19*#52]
G2 I-0.02362 J0
G1 Z[#50+18*#52]
G2 I-0.02362 J0
G1 Z[#50+17*#52]
G2 I-0.02362 J0
G1 Z[#50+16*#52]
G2 I-0.02362 J0
G1 Z[#50+15*#52]
G2 I-0.02362 J0
G1 Z[#50+14*#52]
G2 I-0.02362 J0
G1 Z[#50+13*#52]
G2 I-0.02362 J0
G1 Z[#50+12*#52]
G2 I-0.02362 J0
G1 Z[#50+11*#52]
G2 I-0.02362 J0
G1 Z[#50+10*#52]
G2 I-0.02362 J0
G1 Z[#50+9*#52]
G2 I-0.02362 J0
G1 Z[#50+8*#52]
G2 I-0.02362 J0
G1 Z[#50+7*#52]
G2 I-0.02362 J0
G1 Z[#50+6*#52]
G2 I-0.02362 J0
G1 Z[#50+5*#52]
G2 I-0.02362 J0
G1 Z[#50+4*#52]
G2 I-0.02362 J0
G1 Z[#50+3*#52]
G2 I-0.02362 J0
G1 Z[#50+2*#52]
G2 I-0.02362 J0
G1 Z[#50+1*#52]
G2 I-0.02362 J0
G1 Z[#50+0*#52]
G2 I-0.02362 J0
G0 Z0.98425

G0 X1.20140 Y0.24350
G1 Z#50
G0 Z#51

G0 X2.82000 Y1.68340
G1 Z#50
G0 Z#51

G0 X1.39450 Y0.24350
G1 Z#50
G0 Z#51

G0 X1.30140 Y0.74350
G1 Z#50
G0 Z#51

G0 X1.90140 Y0.44350
G1 Z#50
G0 Z#51

G0 X0.70140 Y1.24350
G1 Z#50
G0 Z#51

G0 X1.00140 Y1.44350
G1 Z#50
G0 Z#51

G0 X0.80140 Y0.74350
G1 Z#50
G0 Z#51

G0 X1.40140 Y1.64350
G1 Z#50
G0 Z#51

G0 X1.10140 Y0.74350
G1 Z#50
G0 Z#51

G0 X1.70140 Y0.44350
G1 Z#50
G0 Z#51

G0 X1.40140 Y1.24350
G1 Z#50
G0 Z#51

G0 X1.90140 Y0.74350
G1 Z#50
G0 Z#51

G0 X0.90140 Y0.44350
G1 Z#50
G0 Z#51

G0 X1.70140 Y1.44350
G1 Z#50
G0 Z#51

G0 X1.00140 Y1.34350
G1 Z#50
G0 Z#51

G0 X1.70140 Y0.74350
G1 Z#50
G0 Z#51

G0 X2.30140 Y0.54350
G1 Z#50
G0 Z#51

G0 X2.10140 Y1.64350
G1 Z#50
G0 Z#51

G0 X1.50140 Y1.64350
G1 Z#50
G0 Z#51

G0 X1.40140 Y0.44350
G1 Z#50
G0 Z#51

G0 X1.90140 Y1.44350
G1 Z#50
G0 Z#51

G0 X0.80140 Y1.64350
G1 Z#50
G0 Z#51

G0 X2.30140 Y0.14350
G1 Z#50
G0 Z#51

G0 X2.10140 Y1.24350
G1 Z#50
G0 Z#51

G0 X0.90140 Y0.74350
G1 Z#50
G0 Z#51

G0 X1.50140 Y1.24350
G1 Z#50
G0 Z#51

G0 X2.40140 Y1.44350
G1 Z#50
G0 Z#51

G0 X1.90140 Y1.04350
G1 Z#50
G0 Z#51

G0 X1.20140 Y0.44350
G1 Z#50
G0 Z#51

G0 X0.80140 Y1.24350
G1 Z#50
G0 Z#51

G0 X1.20140 Y1.44350
G1 Z#50
G0 Z#51

G0 X1.70140 Y1.34350
G1 Z#50
G0 Z#51

G0 X1.40140 Y0.74350
G1 Z#50
G0 Z#51

G0 X2.00140 Y0.44350
G1 Z#50
G0 Z#51

G0 X1.00140 Y1.24350
G1 Z#50
G0 Z#51

G0 X1.20140 Y1.04350
G1 Z#50
G0 Z#51

G0 X2.60140 Y1.44350
G1 Z#50
G0 Z#51

G0 X1.20140 Y0.74350
G1 Z#50
G0 Z#51

G0 X1.80140 Y0.44350
G1 Z#50
G0 Z#51

G0 X2.40140 Y1.34350
G1 Z#50
G0 Z#51

G0 X2.10140 Y0.44350
G1 Z#50
G0 Z#51

G0 X1.50140 Y0.44350
G1 Z#50
G0 Z#51

G0 X2.60140 Y1.04350
G1 Z#50
G0 Z#51

G0 X1.60140 Y0.44350
G1 Z#50
G0 Z#51

G0 X2.00140 Y0.74350
G1 Z#50
G0 Z#51

G0 X1.00140 Y0.44350
G1 Z#50
G0 Z#51

G0 X2.20140 Y1.64350
G1 Z#50
G0 Z#51

G0 X1.30140 Y0.44350
G1 Z#50
G0 Z#51

G0 X1.70140 Y1.24350
G1 Z#50
G0 Z#51

G0 X1.80140 Y0.74350
G1 Z#50
G0 Z#51

G0 X2.20140 Y1.24350
G1 Z#50
G0 Z#51

G0 X0.80140 Y0.44350
G1 Z#50
G0 Z#51

G0 X2.10140 Y0.74350
G1 Z#50
G0 Z#51

G0 X1.10140 Y0.44350
G1 Z#50
G0 Z#51

G0 X1.50140 Y0.74350
G1 Z#50
G0 Z#51

G0 X0.70140 Y1.64350
G1 Z#50
G0 Z#51

G0 X1.60140 Y0.74350
G1 Z#50
G0 Z#51

G0 X2.40140 Y1.24350
G1 Z#50
G0 Z#51

G0 X1.00140 Y0.74350
G1 Z#50
G0 Z#51

G0 X2.70140 Y0.54350
G1 Z#50
G0 Z#51

G0 X2.40140 Y0.64350
G1 Z#50
G0 Z#51

G0 X2.70140 Y0.64350
G1 Z#50
G0 Z#51

G0 X2.40140 Y0.74350
G1 Z#50
G0 Z#51

G0 X2.40140 Y0.44350
G1 Z#50
G0 Z#51

G0 X2.70140 Y0.74350
G1 Z#50
G0 Z#51

G0 X2.70140 Y0.44350
G1 Z#50
G0 Z#51

G0 X2.40140 Y0.54350
G1 Z#50
G0 Z#51

G0 X1.00271 Y1.74350
G1 Z[#50+20*#52]
G2 I-0.00131 J0
G1 Z[#50+19*#52]
G2 I-0.00131 J0
G1 Z[#50+18*#52]
G2 I-0.00131 J0
G1 Z[#50+17*#52]
G2 I-0.00131 J0
G1 Z[#50+16*#52]
G2 I-0.00131 J0
G1 Z[#50+15*#52]
G2 I-0.00131 J0
G1 Z[#50+14*#52]
G2 I-0.00131 J0
G1 Z[#50+13*#52]
G2 I-0.00131 J0
G1 Z[#50+12*#52]
G2 I-0.00131 J0
G1 Z[#50+11*#52]
G2 I-0.00131 J0
G1 Z[#50+10*#52]
G2 I-0.00131 J0
G1 Z[#50+9*#52]
G2 I-0.00131 J0
G1 Z[#50+8*#52]
G2 I-0.00131 J0
G1 Z[#50+7*#52]
G2 I-0.00131 J0
G1 Z[#50+6*#52]
G2 I-0.00131 J0
G1 Z[#50+5*#52]
G2 I-0.00131 J0
G1 Z[#50+4*#52]
G2 I-0.00131 J0
G1 Z[#50+3*#52]
G2 I-0.00131 J0
G1 Z[#50+2*#52]
G2 I-0.00131 J0
G1 Z[#50+1*#52]
G2 I-0.00131 J0
G1 Z[#50+0*#52]
G2 I-0.00131 J0
G0 Z0.98425

G0 X0.80271 Y1.74350
G1 Z[#50+20*#52]
G2 I-0.00131 J0
G1 Z[#50+19*#52]
G2 I-0.00131 J0
G1 Z[#50+18*#52]
G2 I-0.00131 J0
G1 Z[#50+17*#52]
G2 I-0.00131 J0
G1 Z[#50+16*#52]
G2 I-0.00131 J0
G1 Z[#50+15*#52]
G2 I-0.00131 J0
G1 Z[#50+14*#52]
G2 I-0.00131 J0
G1 Z[#50+13*#52]
G2 I-0.00131 J0
G1 Z[#50+12*#52]
G2 I-0.00131 J0
G1 Z[#50+11*#52]
G2 I-0.00131 J0
G1 Z[#50+10*#52]
G2 I-0.00131 J0
G1 Z[#50+9*#52]
G2 I-0.00131 J0
G1 Z[#50+8*#52]
G2 I-0.00131 J0
G1 Z[#50+7*#52]
G2 I-0.00131 J0
G1 Z[#50+6*#52]
G2 I-0.00131 J0
G1 Z[#50+5*#52]
G2 I-0.00131 J0
G1 Z[#50+4*#52]
G2 I-0.00131 J0
G1 Z[#50+3*#52]
G2 I-0.00131 J0
G1 Z[#50+2*#52]
G2 I-0.00131 J0
G1 Z[#50+1*#52]
G2 I-0.00131 J0
G1 Z[#50+0*#52]
G2 I-0.00131 J0
G0 Z0.98425

G0 X2.30271 Y1.74350
G1 Z[#50+20*#52]
G2 I-0.00131 J0
G1 Z[#50+19*#52]
G2 I-0.00131 J0
G1 Z[#50+18*#52]
G2 I-0.00131 J0
G1 Z[#50+17*#52]
G2 I-0.00131 J0
G1 Z[#50+16*#52]
G2 I-0.00131 J0
G1 Z[#50+15*#52]
G2 I-0.00131 J0
G1 Z[#50+14*#52]
G2 I-0.00131 J0
G1 Z[#50+13*#52]
G2 I-0.00131 J0
G1 Z[#50+12*#52]
G2 I-0.00131 J0
G1 Z[#50+11*#52]
G2 I-0.00131 J0
G1 Z[#50+10*#52]
G2 I-0.00131 J0
G1 Z[#50+9*#52]
G2 I-0.00131 J0
G1 Z[#50+8*#52]
G2 I-0.00131 J0
G1 Z[#50+7*#52]
G2 I-0.00131 J0
G1 Z[#50+6*#52]
G2 I-0.00131 J0
G1 Z[#50+5*#52]
G2 I-0.00131 J0
G1 Z[#50+4*#52]
G2 I-0.00131 J0
G1 Z[#50+3*#52]
G2 I-0.00131 J0
G1 Z[#50+2*#52]
G2 I-0.00131 J0
G1 Z[#50+1*#52]
G2 I-0.00131 J0
G1 Z[#50+0*#52]
G2 I-0.00131 J0
G0 Z0.98425

G0 X1.70272 Y1.74350
G1 Z[#50+20*#52]
G2 I-0.00131 J0
G1 Z[#50+19*#52]
G2 I-0.00131 J0
G1 Z[#50+18*#52]
G2 I-0.00131 J0
G1 Z[#50+17*#52]
G2 I-0.00131 J0
G1 Z[#50+16*#52]
G2 I-0.00131 J0
G1 Z[#50+15*#52]
G2 I-0.00131 J0
G1 Z[#50+14*#52]
G2 I-0.00131 J0
G1 Z[#50+13*#52]
G2 I-0.00131 J0
G1 Z[#50+12*#52]
G2 I-0.00131 J0
G1 Z[#50+11*#52]
G2 I-0.00131 J0
G1 Z[#50+10*#52]
G2 I-0.00131 J0
G1 Z[#50+9*#52]
G2 I-0.00131 J0
G1 Z[#50+8*#52]
G2 I-0.00131 J0
G1 Z[#50+7*#52]
G2 I-0.00131 J0
G1 Z[#50+6*#52]
G2 I-0.00131 J0
G1 Z[#50+5*#52]
G2 I-0.00131 J0
G1 Z[#50+4*#52]
G2 I-0.00131 J0
G1 Z[#50+3*#52]
G2 I-0.00131 J0
G1 Z[#50+2*#52]
G2 I-0.00131 J0
G1 Z[#50+1*#52]
G2 I-0.00131 J0
G1 Z[#50+0*#52]
G2 I-0.00131 J0
G0 Z0.98425

G0 X2.94551 Y1.77070
G1 Z[#50+20*#52]
G2 I-0.00131 J0
G1 Z[#50+19*#52]
G2 I-0.00131 J0
G1 Z[#50+18*#52]
G2 I-0.00131 J0
G1 Z[#50+17*#52]
G2 I-0.00131 J0
G1 Z[#50+16*#52]
G2 I-0.00131 J0
G1 Z[#50+15*#52]
G2 I-0.00131 J0
G1 Z[#50+14*#52]
G2 I-0.00131 J0
G1 Z[#50+13*#52]
G2 I-0.00131 J0
G1 Z[#50+12*#52]
G2 I-0.00131 J0
G1 Z[#50+11*#52]
G2 I-0.00131 J0
G1 Z[#50+10*#52]
G2 I-0.00131 J0
G1 Z[#50+9*#52]
G2 I-0.00131 J0
G1 Z[#50+8*#52]
G2 I-0.00131 J0
G1 Z[#50+7*#52]
G2 I-0.00131 J0
G1 Z[#50+6*#52]
G2 I-0.00131 J0
G1 Z[#50+5*#52]
G2 I-0.00131 J0
G1 Z[#50+4*#52]
G2 I-0.00131 J0
G1 Z[#50+3*#52]
G2 I-0.00131 J0
G1 Z[#50+2*#52]
G2 I-0.00131 J0
G1 Z[#50+1*#52]
G2 I-0.00131 J0
G1 Z[#50+0*#52]
G2 I-0.00131 J0
G0 Z0.98425

G0 X1.50271 Y1.74350
G1 Z[#50+20*#52]
G2 I-0.00131 J0
G1 Z[#50+19*#52]
G2 I-0.00131 J0
G1 Z[#50+18*#52]
G2 I-0.00131 J0
G1 Z[#50+17*#52]
G2 I-0.00131 J0
G1 Z[#50+16*#52]
G2 I-0.00131 J0
G1 Z[#50+15*#52]
G2 I-0.00131 J0
G1 Z[#50+14*#52]
G2 I-0.00131 J0
G1 Z[#50+13*#52]
G2 I-0.00131 J0
G1 Z[#50+12*#52]
G2 I-0.00131 J0
G1 Z[#50+11*#52]
G2 I-0.00131 J0
G1 Z[#50+10*#52]
G2 I-0.00131 J0
G1 Z[#50+9*#52]
G2 I-0.00131 J0
G1 Z[#50+8*#52]
G2 I-0.00131 J0
G1 Z[#50+7*#52]
G2 I-0.00131 J0
G1 Z[#50+6*#52]
G2 I-0.00131 J0
G1 Z[#50+5*#52]
G2 I-0.00131 J0
G1 Z[#50+4*#52]
G2 I-0.00131 J0
G1 Z[#50+3*#52]
G2 I-0.00131 J0
G1 Z[#50+2*#52]
G2 I-0.00131 J0
G1 Z[#50+1*#52]
G2 I-0.00131 J0
G1 Z[#50+0*#52]
G2 I-0.00131 J0
G0 Z0.98425

G0 X0.90271 Y1.74350
G1 Z[#50+20*#52]
G2 I-0.00131 J0
G1 Z[#50+19*#52]
G2 I-0.00131 J0
G1 Z[#50+18*#52]
G2 I-0.00131 J0
G1 Z[#50+17*#52]
G2 I-0.00131 J0
G1 Z[#50+16*#52]
G2 I-0.00131 J0
G1 Z[#50+15*#52]
G2 I-0.00131 J0
G1 Z[#50+14*#52]
G2 I-0.00131 J0
G1 Z[#50+13*#52]
G2 I-0.00131 J0
G1 Z[#50+12*#52]
G2 I-0.00131 J0
G1 Z[#50+11*#52]
G2 I-0.00131 J0
G1 Z[#50+10*#52]
G2 I-0.00131 J0
G1 Z[#50+9*#52]
G2 I-0.00131 J0
G1 Z[#50+8*#52]
G2 I-0.00131 J0
G1 Z[#50+7*#52]
G2 I-0.00131 J0
G1 Z[#50+6*#52]
G2 I-0.00131 J0
G1 Z[#50+5*#52]
G2 I-0.00131 J0
G1 Z[#50+4*#52]
G2 I-0.00131 J0
G1 Z[#50+3*#52]
G2 I-0.00131 J0
G1 Z[#50+2*#52]
G2 I-0.00131 J0
G1 Z[#50+1*#52]
G2 I-0.00131 J0
G1 Z[#50+0*#52]
G2 I-0.00131 J0
G0 Z0.98425

G0 X2.40271 Y1.74350
G1 Z[#50+20*#52]
G2 I-0.00131 J0
G1 Z[#50+19*#52]
G2 I-0.00131 J0
G1 Z[#50+18*#52]
G2 I-0.00131 J0
G1 Z[#50+17*#52]
G2 I-0.00131 J0
G1 Z[#50+16*#52]
G2 I-0.00131 J0
G1 Z[#50+15*#52]
G2 I-0.00131 J0
G1 Z[#50+14*#52]
G2 I-0.00131 J0
G1 Z[#50+13*#52]
G2 I-0.00131 J0
G1 Z[#50+12*#52]
G2 I-0.00131 J0
G1 Z[#50+11*#52]
G2 I-0.00131 J0
G1 Z[#50+10*#52]
G2 I-0.00131 J0
G1 Z[#50+9*#52]
G2 I-0.00131 J0
G1 Z[#50+8*#52]
G2 I-0.00131 J0
G1 Z[#50+7*#52]
G2 I-0.00131 J0
G1 Z[#50+6*#52]
G2 I-0.00131 J0
G1 Z[#50+5*#52]
G2 I-0.00131 J0
G1 Z[#50+4*#52]
G2 I-0.00131 J0
G1 Z[#50+3*#52]
G2 I-0.00131 J0
G1 Z[#50+2*#52]
G2 I-0.00131 J0
G1 Z[#50+1*#52]
G2 I-0.00131 J0
G1 Z[#50+0*#52]
G2 I-0.00131 J0
G0 Z0.98425

G0 X2.20271 Y1.74350
G1 Z[#50+20*#52]
G2 I-0.00131 J0
G1 Z[#50+19*#52]
G2 I-0.00131 J0
G1 Z[#50+18*#52]
G2 I-0.00131 J0
G1 Z[#50+17*#52]
G2 I-0.00131 J0
G1 Z[#50+16*#52]
G2 I-0.00131 J0
G1 Z[#50+15*#52]
G2 I-0.00131 J0
G1 Z[#50+14*#52]
G2 I-0.00131 J0
G1 Z[#50+13*#52]
G2 I-0.00131 J0
G1 Z[#50+12*#52]
G2 I-0.00131 J0
G1 Z[#50+11*#52]
G2 I-0.00131 J0
G1 Z[#50+10*#52]
G2 I-0.00131 J0
G1 Z[#50+9*#52]
G2 I-0.00131 J0
G1 Z[#50+8*#52]
G2 I-0.00131 J0
G1 Z[#50+7*#52]
G2 I-0.00131 J0
G1 Z[#50+6*#52]
G2 I-0.00131 J0
G1 Z[#50+5*#52]
G2 I-0.00131 J0
G1 Z[#50+4*#52]
G2 I-0.00131 J0
G1 Z[#50+3*#52]
G2 I-0.00131 J0
G1 Z[#50+2*#52]
G2 I-0.00131 J0
G1 Z[#50+1*#52]
G2 I-0.00131 J0
G1 Z[#50+0*#52]
G2 I-0.00131 J0
G0 Z0.98425

G0 X2.94551 Y1.67070
G1 Z[#50+20*#52]
G2 I-0.00131 J0
G1 Z[#50+19*#52]
G2 I-0.00131 J0
G1 Z[#50+18*#52]
G2 I-0.00131 J0
G1 Z[#50+17*#52]
G2 I-0.00131 J0
G1 Z[#50+16*#52]
G2 I-0.00131 J0
G1 Z[#50+15*#52]
G2 I-0.00131 J0
G1 Z[#50+14*#52]
G2 I-0.00131 J0
G1 Z[#50+13*#52]
G2 I-0.00131 J0
G1 Z[#50+12*#52]
G2 I-0.00131 J0
G1 Z[#50+11*#52]
G2 I-0.00131 J0
G1 Z[#50+10*#52]
G2 I-0.00131 J0
G1 Z[#50+9*#52]
G2 I-0.00131 J0
G1 Z[#50+8*#52]
G2 I-0.00131 J0
G1 Z[#50+7*#52]
G2 I-0.00131 J0
G1 Z[#50+6*#52]
G2 I-0.00131 J0
G1 Z[#50+5*#52]
G2 I-0.00131 J0
G1 Z[#50+4*#52]
G2 I-0.00131 J0
G1 Z[#50+3*#52]
G2 I-0.00131 J0
G1 Z[#50+2*#52]
G2 I-0.00131 J0
G1 Z[#50+1*#52]
G2 I-0.00131 J0
G1 Z[#50+0*#52]
G2 I-0.00131 J0
G0 Z0.98425

G0 X1.60272 Y1.74350
G1 Z[#50+20*#52]
G2 I-0.00131 J0
G1 Z[#50+19*#52]
G2 I-0.00131 J0
G1 Z[#50+18*#52]
G2 I-0.00131 J0
G1 Z[#50+17*#52]
G2 I-0.00131 J0
G1 Z[#50+16*#52]
G2 I-0.00131 J0
G1 Z[#50+15*#52]
G2 I-0.00131 J0
G1 Z[#50+14*#52]
G2 I-0.00131 J0
G1 Z[#50+13*#52]
G2 I-0.00131 J0
G1 Z[#50+12*#52]
G2 I-0.00131 J0
G1 Z[#50+11*#52]
G2 I-0.00131 J0
G1 Z[#50+10*#52]
G2 I-0.00131 J0
G1 Z[#50+9*#52]
G2 I-0.00131 J0
G1 Z[#50+8*#52]
G2 I-0.00131 J0
G1 Z[#50+7*#52]
G2 I-0.00131 J0
G1 Z[#50+6*#52]
G2 I-0.00131 J0
G1 Z[#50+5*#52]
G2 I-0.00131 J0
G1 Z[#50+4*#52]
G2 I-0.00131 J0
G1 Z[#50+3*#52]
G2 I-0.00131 J0
G1 Z[#50+2*#52]
G2 I-0.00131 J0
G1 Z[#50+1*#52]
G2 I-0.00131 J0
G1 Z[#50+0*#52]
G2 I-0.00131 J0
G0 Z0.98425

G0 X2.94551 Y1.57070
G1 Z[#50+20*#52]
G2 I-0.00131 J0
G1 Z[#50+19*#52]
G2 I-0.00131 J0
G1 Z[#50+18*#52]
G2 I-0.00131 J0
G1 Z[#50+17*#52]
G2 I-0.00131 J0
G1 Z[#50+16*#52]
G2 I-0.00131 J0
G1 Z[#50+15*#52]
G2 I-0.00131 J0
G1 Z[#50+14*#52]
G2 I-0.00131 J0
G1 Z[#50+13*#52]
G2 I-0.00131 J0
G1 Z[#50+12*#52]
G2 I-0.00131 J0
G1 Z[#50+11*#52]
G2 I-0.00131 J0
G1 Z[#50+10*#52]
G2 I-0.00131 J0
G1 Z[#50+9*#52]
G2 I-0.00131 J0
G1 Z[#50+8*#52]
G2 I-0.00131 J0
G1 Z[#50+7*#52]
G2 I-0.00131 J0
G1 Z[#50+6*#52]
G2 I-0.00131 J0
G1 Z[#50+5*#52]
G2 I-0.00131 J0
G1 Z[#50+4*#52]
G2 I-0.00131 J0
G1 Z[#50+3*#52]
G2 I-0.00131 J0
G1 Z[#50+2*#52]
G2 I-0.00131 J0
G1 Z[#50+1*#52]
G2 I-0.00131 J0
G1 Z[#50+0*#52]
G2 I-0.00131 J0
G0 Z0.98425

G0 X3.00140 Y0.34350
G1 Z#50
G0 Z#51

G0 X1.63920 Y2.14350
G1 Z#50
G0 Z#51

G0 X2.20140 Y2.14350
G1 Z#50
G0 Z#51

G0 X2.33920 Y2.14350
G1 Z#50
G0 Z#51

G0 X3.00140 Y0.48130
G1 Z#50
G0 Z#51

G0 X3.00140 Y0.75690
G1 Z#50
G0 Z#51

G0 X1.77700 Y2.14350
G1 Z#50
G0 Z#51

G0 X1.50140 Y2.14350
G1 Z#50
G0 Z#51

G0 X3.00140 Y0.61910
G1 Z#50
G0 Z#51

G0 X2.94420 Y2.05210
G1 Z#50
G0 Z#51

G0 X2.84420 Y2.05210
G1 Z#50
G0 Z#51

G0 X2.95540 Y1.29550
G1 Z#50
G0 Z#51

G0 X2.85540 Y1.29550
G1 Z#50
G0 Z#51

G00 Z0.39370 ( All done -- retract )

M9 ( Coolant off. )
M2 ( Program end. )

